X:1
T:Dagenham, 87.87 D
T:Dagenham, 87.87 D
T:Dora Boole, 1873
T:Public Domain Courtesy of the Cyber Hymnal™
C:Dora Boole, 1873
Z:Public Domain
Z:Courtesy of the Cyber Hymnal™
%%score ( 1 2 ) ( 3 4 )
L:1/8
Q:1/4=95
M:3/4
K:Ab
V:1 treble 
V:2 treble 
V:3 bass 
V:4 bass 
V:1
 [CE][CA] | [Ec]3 [Ec] [Fd][Ec] | [Ec]2 [CA]2 [CA][Ec] | [EB]3 [EG] [DF][DG] | %4
 [DB]2 [CA]2 [CE][CA] | [Ec]3 [Ec] [Fd][Ec] | [Ec]2 [CA]2 [CA][Ec] | [FB]3 [DF] [DG]>[DB] | %8
 [CA]4 EE | [Ed]3 [EB] [EG]E | [Ec]2 [CA]2 [Ec][Ec] | [=Dc]3 [DB] [DA]>[DF] | E3 z [CE][CA] | %13
 [Ec]3 [Ec] [Fd][Ec] | [Ec]2 [CA]2 [CA][Ec] | [DB]3 [DF] [DG]>[DB] | [CA]4 |] %17
V:2
 x2 | x6 | x6 | x6 | x6 | x6 | x6 | x6 | x4 EE | x5 E | x6 | x6 | E3 x3 | x6 | x6 | x6 | x4 |] %17
V:3
 [A,,A,][A,,A,] | [A,,A,]3 [A,,A,] [A,,A,][A,,A,] | [A,,A,]2 [A,,A,]2 [A,,A,][A,,A,] | %3
 [E,G,]3 [E,B,] [E,A,]E, | [E,G,]2 [A,,A,]2 [A,,A,][A,,A,] | [A,,A,]3 [A,,A,] [A,,A,][A,,A,] | %6
 [A,,A,]2 [A,,A,]2 [A,,A,][A,,A,] | [D,F,]3 [B,,B,] [E,B,]>[E,G,] | [A,,A,]4 [E,G,][E,G,] | %9
 [E,B,]3 [E,G,] [E,B,][E,G,] | A,2 [A,,E,]2 [A,,A,][A,,A,] | [B,,F,]3 [B,,B,] [B,,B,]>[B,,A,] | %12
 [E,G,]3 z [A,,A,][A,,A,] | [A,,A,]3 [A,,A,] [A,,A,][A,,A,] | [A,,A,]2 [A,,A,]2 [A,,A,][A,,A,] | %15
 [D,F,]3 [B,,B,] [E,B,]>[E,G,] | [A,,A,]4 |] %17
V:4
 x2 | x6 | x6 | x5 E, | x6 | x6 | x6 | x6 | x6 | x6 | A,2 x4 | x6 | x6 | x6 | x6 | x6 | x4 |] %17

